X:1
T:Buttercup Joe
C:English Folk Song
N:Composer unknown 
N:Tune has been spoofed in the old days
M:2/4
L:1/8
Q:1/8=120
K:D
|D/2F/2|"D"AAFD|"G"B,CD3/2D/2|"A"EEAA|"D"FD z D/2D/2|\
"D"A/2A/2A FD|"G"GG B3/2G/2|"A"FAEA|"D"F D3|
"D"AFDD|AFD3/2D/2|"G"B,EE3/2D/2|"A"CA z F/2F/2|"G"GE F3/2F/2|"A"FD E3/2E/2|\
A,A,B,C|"D"ED z/2 D/2D/2F/2|
AAFD|B,C D3/2D/2|BBAF|E4|AA/2A/2 FD|GGBF/2G/2|AA G/2F/2E|D3||
